X: 1
T: Capten Magan
B: A COLECTION of the most Celebrated Irish Tunes11a
M: 6/8
L: 1/8
K: Gm
G>AG Bcd | c>AB ^F>GA | B/c/dB cA^F | GDB, G,B,D :|
|: d>ed d>cB | c>dc c2c | d=e^f gd^f | g3 g2^f/g/ |
af/g/a gd/e/^f | cA/B/c F>GA | B/c/dB cA^F | G/G/GG G/G/GG :|
